X:176
T: Qiao qing lang
N: C0297B
O: China, Liaoning
S: III, 278]
N: S. 279, 2. Zeile, vorl. Takt: neue Weise; letzte Zeile, vorl.
N: T.: neue Weise; S. 280 2. Z., letzter T.: neue Weise; unten,
N: letzte Z.: Variante; S. 281, vor Doppelstr.: Variante; letzte
N: beiden Zeilen entsprechen einer Coda. - Enthaelt Elemente der
N: prosaischen Musik.
N: +++Das Lied wurde  GETEILT!!+++In diesem Dokument ist der Schluss des
N: Liedes, ab S. 281, 4. Z.) notiert, der erste T. im vorherigen unter
N: gleicher Signatur, A). Vereinzelt Glissandi.
R: Xiaodiao, Shuai xigua]
M: 2/4
L: 1/16
K: G
d3dg2B2 | A6z2 | G3Ad2B2 | A6z2
A3GA2A2 | g2e2d4 | e3BB2A2 | G4G2E2
d2EED2D2 | z2G2E2B2 | A4G2E2 | D2D2CDE2 | D8
z2A2E2G2 | A2G2A4 | z2d2e2B2 | A2G2A4
d2EED2D2 | z2d2B2g2 | e4d2B2 | A2ABAGE2 | d8

